X:22
T: ACH MUTTER, LIEBE MUTTER!
N: Z0023
O: Europa, Mitteleuropa, Deutschland
R: Sagen - Lied, Romanze, Koenigskinder, Tod
M: 2/4
L: 1/16
K: G
D2 | B3BB3A | A4G2
D2 | c2c2cBdB | A4z2
D2 | d3ed3c | B4dc
BA | G2G2BAGA | B4
A4 | B2B2dcBA | G4z2

